X: 35960
T: Sarah's Ashes
R: reel
M: 4/4
K: Emajor
|:B2cB BGFE|FGFE B,3,E|CEEC c2(3Bce|c2 (3Bce gfec|
eccB ce (3EFG|AGFE C3E|B,EcB GFFE|[B,8E8]:|
|:f2b gfe2|cBBG B4|EFGc Bceg|fgbd c3e|
BGGF G3c|BGGE C3c|BGGF (3EFG FE|[B,8E8]:|
|:E2 (3EFG Bce2|g2 (3gfe cBG2|F2 (3FGB c2 (3Bce|g2 (3fgb gfeB|
G2 FE (3EFG B,C|E2cB (3Bce B,C|E2 cB GFFE|[B,8E8]:|

